build/img/sprite/instagram.svg

<svg width="24" height="24" viewBox="0 0 24 24" fill="none" xmlns="http://www.w3.org/2000/svg">
<path fill-rule="evenodd" clip-rule="evenodd" d="M12 2C9.28416 2 8.94362 2.01151 7.87701 2.06018C6.81263 2.10872 6.08569 2.27779 5.44962 2.52501C4.79203 2.78052 4.23436 3.12246 3.67839 3.67839C3.12246 4.23436 2.78052 4.79203 2.52501 5.44962C2.27779 6.08569 2.10872 6.81263 2.06018 7.87701C2.01151 8.94362 2 9.28416 2 12C2 14.7158 2.01151 15.0564 2.06018 16.123C2.10872 17.1874 2.27779 17.9143 2.52501 18.5504C2.78052 19.208 3.12246 19.7656 3.67839 20.3216C4.23436 20.8775 4.79203 21.2195 5.44962 21.475C6.08569 21.7222 6.81263 21.8913 7.87701 21.9398C8.94362 21.9885 9.28416 22 12 22C14.7158 22 15.0564 21.9885 16.123 21.9398C17.1874 21.8913 17.9143 21.7222 18.5504 21.475C19.208 21.2195 19.7656 20.8775 20.3216 20.3216C20.8775 19.7656 21.2195 19.208 21.475 18.5504C21.7222 17.9143 21.8913 17.1874 21.9398 16.123C21.9885 15.0564 22 14.7158 22 12C22 9.28416 21.9885 8.94362 21.9398 7.87701C21.8913 6.81263 21.7222 6.08569 21.475 5.44962C21.2195 4.79203 20.8775 4.23436 20.3216 3.67839C19.7656 3.12246 19.208 2.78052 18.5504 2.52501C17.9143 2.27779 17.1874 2.10872 16.123 2.06018C15.0564 2.01151 14.7158 2 12 2ZM12 3.8018C14.6701 3.8018 14.9864 3.812 16.0409 3.86011C17.0158 3.90457 17.5453 4.06748 17.8977 4.20443C18.3645 4.38583 18.6976 4.60253 19.0475 4.95248C19.3975 5.30239 19.6142 5.63551 19.7956 6.10229C19.9325 6.45466 20.0954 6.98415 20.1399 7.95914C20.188 9.0136 20.1982 9.32989 20.1982 12C20.1982 14.6701 20.188 14.9864 20.1399 16.0409C20.0954 17.0158 19.9325 17.5453 19.7956 17.8977C19.6142 18.3645 19.3975 18.6976 19.0475 19.0475C18.6976 19.3975 18.3645 19.6142 17.8977 19.7956C17.5453 19.9325 17.0158 20.0954 16.0409 20.1399C14.9866 20.188 14.6703 20.1982 12 20.1982C9.32969 20.1982 9.01348 20.188 7.95914 20.1399C6.98415 20.0954 6.45466 19.9325 6.10229 19.7956C5.63551 19.6142 5.30239 19.3975 4.95248 19.0475C4.60257 18.6976 4.38583 18.3645 4.20443 17.8977C4.06748 17.5453 3.90457 17.0158 3.86011 16.0409C3.812 14.9864 3.8018 14.6701 3.8018 12C3.8018 9.32989 3.812 9.0136 3.86011 7.95914C3.90457 6.98415 4.06748 6.45466 4.20443 6.10229C4.38583 5.63551 4.60253 5.30239 4.95248 4.95248C5.30239 4.60253 5.63551 4.38583 6.10229 4.20443C6.45466 4.06748 6.98415 3.90457 7.95914 3.86011C9.0136 3.812 9.32989 3.8018 12 3.8018ZM12 15.3333C10.159 15.3333 8.66667 13.841 8.66667 12C8.66667 10.159 10.159 8.66667 12 8.66667C13.841 8.66667 15.3333 10.159 15.3333 12C15.3333 13.841 13.841 15.3333 12 15.3333ZM12 6.86487C9.16393 6.86487 6.86487 9.16393 6.86487 12C6.86487 14.8361 9.16393 17.1351 12 17.1351C14.8361 17.1351 17.1351 14.8361 17.1351 12C17.1351 9.16393 14.8361 6.86487 12 6.86487ZM17.338 7.86197C18.0008 7.86197 18.538 7.32474 18.538 6.66199C18.538 5.99924 18.0008 5.46197 17.338 5.46197C16.6753 5.46197 16.138 5.99924 16.138 6.66199C16.138 7.32474 16.6753 7.86197 17.338 7.86197Z" fill="white"/>
</svg>

<svg width="24" height="24" fill="none" xmlns="http://www.w3.org/2000/svg"><path fill-rule="evenodd" clip-rule="evenodd" d="M12 2c-2.716 0-3.056.012-4.123.06-1.064.049-1.791.218-2.427.465a4.901 4.901 0 0 0-1.772 1.153A4.901 4.901 0 0 0 2.525 5.45c-.247.636-.416 1.363-.465 2.427C2.012 8.944 2 9.284 2 12s.012 3.056.06 4.123c.049 1.064.218 1.791.465 2.427a4.902 4.902 0 0 0 1.153 1.772 4.902 4.902 0 0 0 1.772 1.153c.636.247 1.363.416 2.427.465 1.067.048 1.407.06 4.123.06s3.056-.012 4.123-.06c1.064-.049 1.791-.218 2.427-.465a4.902 4.902 0 0 0 1.772-1.153 4.902 4.902 0 0 0 1.153-1.772c.247-.636.416-1.363.465-2.427.048-1.067.06-1.407.06-4.123s-.012-3.056-.06-4.123c-.049-1.064-.218-1.791-.465-2.427a4.902 4.902 0 0 0-1.153-1.772 4.902 4.902 0 0 0-1.772-1.153c-.636-.247-1.363-.416-2.427-.465C15.056 2.012 14.716 2 12 2Zm0 1.802c2.67 0 2.986.01 4.04.058.976.045 1.505.207 1.858.344.466.182.8.399 1.15.748.35.35.566.684.748 1.15.137.353.3.882.344 1.857.048 1.055.058 1.37.058 4.041 0 2.67-.01 2.986-.058 4.04-.045.976-.207 1.505-.344 1.858-.182.466-.398.8-.748 1.15-.35.35-.683.566-1.15.748-.353.137-.882.3-1.857.344-1.054.048-1.37.058-4.041.058-2.67 0-2.987-.01-4.04-.058-.976-.045-1.505-.207-1.858-.344a3.097 3.097 0 0 1-1.15-.748 3.098 3.098 0 0 1-.748-1.15c-.137-.353-.3-.882-.344-1.857-.048-1.055-.058-1.37-.058-4.041 0-2.67.01-2.986.058-4.04.045-.976.207-1.505.344-1.858.182-.466.399-.8.748-1.15.35-.35.684-.566 1.15-.748.353-.137.882-.3 1.857-.344 1.055-.048 1.37-.058 4.041-.058Zm0 11.531a3.333 3.333 0 1 1 0-6.666 3.333 3.333 0 0 1 0 6.666Zm0-8.468a5.135 5.135 0 1 0 0 10.27 5.135 5.135 0 0 0 0-10.27Zm5.338.997a1.2 1.2 0 1 0 0-2.4 1.2 1.2 0 0 0 0 2.4Z" fill="#fff"/></svg>
